lib/logotmp/nrk-logo-nrk-oslo-og-viken-with-bg.svg

<svg width="156" height="24" viewBox="0 0 156 24" fill="none" xmlns="http://www.w3.org/2000/svg">
<rect width="156" height="24" fill="#1767CE"/>
<path d="M6 17.9975V5.99859H10V17.9975H6ZM15.2438 7.90828L17.5081 17.9975H13.1992L10.4955 5.99859H12.9122C13.4663 5.9914 14.0041 6.18675 14.4245 6.54789C14.8456 6.89388 15.0849 7.37419 15.2438 7.90828ZM18 17.9975V5.99859H22V17.9975H18ZM25.0105 10.5616C24.5862 10.5657 24.1687 10.4547 23.8025 10.2405C23.4412 10.0316 23.1411 9.73146 22.9323 9.37009C22.7178 9.00383 22.6068 8.58626 22.611 8.16181C22.6061 7.73996 22.7172 7.32488 22.9323 6.96192C23.1433 6.60449 23.4431 6.30759 23.8025 6.10002C24.1689 5.886 24.5862 5.77501 25.0105 5.77888C25.4322 5.77434 25.8471 5.88543 26.2102 6.10002C26.566 6.30941 26.8626 6.60606 27.072 6.96192C27.2868 7.32498 27.3979 7.73999 27.3933 8.16181C27.3973 8.58622 27.2863 9.00372 27.072 9.37009C26.8649 9.72987 26.5679 10.0298 26.2102 10.2405C25.8471 10.4555 25.4324 10.5666 25.0105 10.5616ZM28 17.9975V5.99859H32V17.9975H28ZM36.9737 12.5557C36.9848 12.5674 37.0693 12.7054 37.2272 12.9698C37.3851 13.2342 37.5906 13.5722 37.8439 13.9838C38.0974 14.3952 38.3649 14.8318 38.6463 15.2935C38.9278 15.7552 39.1926 16.1919 39.4408 16.6033C39.6881 17.0147 39.9697 17.4794 40.2857 17.9975H35.9598C35.6893 17.5581 35.4441 17.161 35.2245 16.8061C35.0048 16.4512 34.7713 16.0681 34.5238 15.6569C34.2758 15.246 34.0306 14.846 33.7882 14.457C33.5458 14.0679 33.3375 13.7271 33.1633 13.4346C32.9883 13.1418 32.8671 12.9446 32.7997 12.843C32.6325 12.5909 32.5336 12.2998 32.5127 11.998C32.5294 11.7084 32.6226 11.4285 32.7828 11.1866C32.8503 11.0739 32.9743 10.8739 33.1545 10.5866C33.3348 10.2993 33.546 9.95855 33.7882 9.56422C34.0304 9.16989 34.2756 8.7671 34.5238 8.35587C34.772 7.94464 35.0055 7.55873 35.2245 7.1982C35.4445 6.83805 35.6897 6.43808 35.9598 5.99831H40.2857L36.9396 11.457C36.8361 11.6191 36.7777 11.8058 36.7706 11.998C36.7818 12.1998 36.8528 12.3938 36.9737 12.5557Z" fill="white"/>
<g clip-path="url(#clip0_5918_1622)">
<path d="M54.4674 7.52564C53.9774 6.98499 53.3805 6.56823 52.6765 6.27538C51.9725 5.98252 51.17 5.83609 50.2689 5.83609C49.3678 5.83609 48.5399 5.98815 47.819 6.29227C47.0982 6.59639 46.4871 7.02441 45.9859 7.57633C45.4846 8.12825 45.1017 8.78999 44.837 9.56155C44.5723 10.3331 44.4399 11.1863 44.4399 12.1212C44.4399 13.0561 44.5695 13.8981 44.8285 14.6471C45.0876 15.3961 45.4649 16.0353 45.9605 16.5647C46.4561 17.0941 47.0559 17.4968 47.7599 17.7728C48.4639 18.0487 49.2608 18.1867 50.1506 18.1867C51.0404 18.1867 51.8599 18.0403 52.5751 17.7474C53.2904 17.4546 53.9014 17.0378 54.4083 16.4971C54.9151 15.9565 55.3037 15.3088 55.5741 14.5542C55.8444 13.7995 55.9796 12.9435 55.9796 11.9861C55.9796 11.0286 55.85 10.2233 55.591 9.46862C55.3319 8.71396 54.9574 8.0663 54.4674 7.52564ZM53.893 13.9121C53.7184 14.4866 53.4621 14.9794 53.1242 15.3905C52.7863 15.8016 52.3696 16.1226 51.874 16.3535C51.3784 16.5844 50.8095 16.6999 50.1675 16.6999C49.5255 16.6999 48.9989 16.5929 48.5202 16.3789C48.0415 16.1649 47.6304 15.8579 47.2868 15.4581C46.9433 15.0582 46.6842 14.5767 46.5096 14.0135C46.3351 13.4503 46.2478 12.8196 46.2478 12.1212C46.2478 11.1863 46.4083 10.3585 46.7293 9.63758C47.0503 8.9167 47.5093 8.35071 48.1063 7.93958C48.7032 7.52846 49.4241 7.3229 50.2689 7.3229C51.1137 7.3229 51.7895 7.51719 52.3639 7.90579C52.9384 8.29439 53.3805 8.84067 53.6902 9.54465C54 10.2486 54.1548 11.0681 54.1548 12.0029C54.1548 12.7013 54.0676 13.3377 53.893 13.9121ZM63.8613 14.7485C63.9571 14.9906 64.0049 15.2807 64.0049 15.6186C64.0049 16.0691 63.912 16.4577 63.7261 16.7844C63.5403 17.111 63.284 17.3757 62.9574 17.5785C62.6308 17.7812 62.2478 17.9304 61.8085 18.0262C61.3692 18.1219 60.9018 18.1698 60.4062 18.1698C60.1922 18.1698 59.981 18.1642 59.7726 18.1529C59.5642 18.1416 59.3502 18.1135 59.1306 18.0684C58.9109 18.0234 58.68 17.9699 58.4379 17.9079C58.1957 17.846 57.9282 17.7643 57.6353 17.6629L57.5677 16.2268C57.8268 16.3169 58.0831 16.3986 58.3365 16.4718C58.5899 16.545 58.8377 16.607 59.0799 16.6577C59.3221 16.7083 59.553 16.7478 59.7726 16.7759C59.9922 16.8041 60.1922 16.8182 60.3724 16.8182C60.7103 16.8182 61.0285 16.7844 61.327 16.7168C61.6255 16.6492 61.8676 16.5338 62.0535 16.3704C62.2393 16.2071 62.3323 15.9847 62.3323 15.7031C62.3323 15.5679 62.3069 15.444 62.2562 15.3314C62.2056 15.2187 62.1323 15.1202 62.0366 15.0357C61.9409 14.9512 61.8254 14.8724 61.6902 14.7992C61.5551 14.7259 61.4086 14.6612 61.251 14.6049C61.1383 14.5711 61.0229 14.5345 60.9046 14.495C60.7863 14.4556 60.6652 14.4162 60.5413 14.3768C60.4174 14.3373 60.2907 14.2979 60.1612 14.2585C60.0317 14.2191 59.8993 14.1768 59.7642 14.1318C59.629 14.0867 59.4995 14.0417 59.3756 13.9966C59.1503 13.9065 58.9391 13.7967 58.742 13.6672C58.5449 13.5376 58.3731 13.3884 58.2267 13.2194C58.0802 13.0505 57.962 12.8449 57.8719 12.6027C57.7817 12.3606 57.7367 12.0818 57.7367 11.7664C57.7367 11.3271 57.8212 10.947 57.9901 10.626C58.1591 10.305 58.3984 10.0403 58.7082 9.83188C59.0179 9.6235 59.3812 9.46581 59.7979 9.3588C60.2147 9.2518 60.6765 9.1983 61.1834 9.1983C61.3861 9.1983 61.5917 9.20674 61.8001 9.22364C62.0084 9.24053 62.2196 9.27151 62.4336 9.31656C62.6476 9.36162 62.8588 9.41794 63.0672 9.48552C63.2756 9.5531 63.4868 9.63195 63.7008 9.72206L63.5825 11.0906C63.4361 11.023 63.2728 10.9611 63.0926 10.9047C62.9123 10.8484 62.7349 10.7977 62.5604 10.7527C62.3858 10.7076 62.2112 10.671 62.0366 10.6429C61.862 10.6147 61.7015 10.595 61.5551 10.5837C61.4086 10.5725 61.2735 10.5668 61.1496 10.5668C60.868 10.5668 60.6174 10.5894 60.3977 10.6344C60.1781 10.6795 59.9894 10.747 59.8317 10.8372C59.674 10.9273 59.5558 11.0371 59.4769 11.1666C59.3981 11.2962 59.3587 11.451 59.3587 11.6312C59.3587 11.7889 59.3953 11.9297 59.4685 12.0536C59.5417 12.1775 59.6374 12.2845 59.7557 12.3746C59.874 12.4648 60.0063 12.5492 60.1527 12.6281C60.2879 12.6957 60.4372 12.7576 60.6005 12.8139C60.7638 12.8702 60.9328 12.9238 61.1073 12.9744C61.2819 13.0251 61.4565 13.0814 61.6311 13.1434C61.8057 13.2053 61.9831 13.2645 62.1633 13.3208C62.4111 13.4109 62.6476 13.5207 62.8729 13.6503C63.0982 13.7798 63.2953 13.9347 63.4643 14.1149C63.6332 14.2951 63.7656 14.5063 63.8613 14.7485ZM68.8877 16.7337L69.0905 16.6999L68.9215 18.0346C68.8427 18.0572 68.7441 18.0797 68.6258 18.1022C68.5076 18.1247 68.3865 18.1416 68.2626 18.1529C68.1387 18.1642 68.0092 18.1698 67.874 18.1698C67.6037 18.1698 67.353 18.1388 67.1221 18.0769C66.8912 18.0149 66.6913 17.9107 66.5223 17.7643C66.3534 17.6179 66.2239 17.4292 66.1338 17.1983C66.0436 16.9674 65.9986 16.6886 65.9986 16.362V5.49818L67.7219 5.24475V15.6017C67.7219 15.8044 67.736 15.979 67.7642 16.1254C67.7923 16.2719 67.8402 16.393 67.9078 16.4887C67.9754 16.5844 68.0598 16.6548 68.1612 16.6999C68.2626 16.7449 68.3865 16.7675 68.5329 16.7675C68.6005 16.7675 68.6596 16.7675 68.7103 16.759C68.761 16.7534 68.8201 16.7449 68.8877 16.7337ZM76.8539 9.73895C76.2063 9.37851 75.4432 9.1983 74.5646 9.1983C73.686 9.1983 72.9173 9.38415 72.2584 9.75585C71.5994 10.1275 71.0869 10.6513 70.7209 11.3271C70.3548 12.0029 70.1718 12.8027 70.1718 13.7263C70.1718 14.6499 70.3435 15.4468 70.6871 16.117C71.0306 16.7872 71.5234 17.2969 72.1654 17.646C72.8075 17.9952 73.5509 18.1698 74.3956 18.1698C75.2404 18.1698 76.0514 17.984 76.7272 17.6122C77.403 17.2405 77.9296 16.7112 78.307 16.0241C78.6843 15.337 78.873 14.526 78.873 13.5911C78.873 12.6562 78.6984 11.9269 78.3492 11.268C78 10.6091 77.5016 10.0994 76.8539 9.73895ZM76.7526 15.3989C76.5329 15.872 76.226 16.224 75.8318 16.4549C75.4375 16.6858 74.987 16.8013 74.4801 16.8013C73.9733 16.8013 73.534 16.683 73.1623 16.4465C72.7906 16.2099 72.4977 15.8551 72.2837 15.382C72.0697 14.909 71.9627 14.3233 71.9627 13.6249C71.9627 12.9266 72.0697 12.369 72.2837 11.9185C72.4977 11.4679 72.799 11.13 73.1876 10.9047C73.5762 10.6795 74.0408 10.5668 74.5815 10.5668C75.0095 10.5668 75.3784 10.6372 75.6882 10.778C75.9979 10.9188 76.257 11.1244 76.4653 11.3947C76.6737 11.665 76.8286 11.9889 76.93 12.3662C77.0313 12.7435 77.082 13.1631 77.082 13.6249C77.082 14.3345 76.9722 14.9259 76.7526 15.3989ZM91.0968 9.73895C90.4492 9.37851 89.6861 9.1983 88.8075 9.1983C87.9289 9.1983 87.1602 9.38415 86.5013 9.75585C85.8423 10.1275 85.3298 10.6513 84.9638 11.3271C84.5977 12.0029 84.4147 12.8027 84.4147 13.7263C84.4147 14.6499 84.5864 15.4468 84.93 16.117C85.2735 16.7872 85.7663 17.2969 86.4083 17.646C87.0504 17.9952 87.7938 18.1698 88.6385 18.1698C89.4833 18.1698 90.2943 17.984 90.9701 17.6122C91.6459 17.2405 92.1725 16.7112 92.5499 16.0241C92.9272 15.337 93.1159 14.526 93.1159 13.5911C93.1159 12.6562 92.9413 11.9269 92.5921 11.268C92.2429 10.6091 91.7445 10.0994 91.0968 9.73895ZM90.9955 15.3989C90.7758 15.872 90.4689 16.224 90.0747 16.4549C89.6804 16.6858 89.2299 16.8013 88.723 16.8013C88.2162 16.8013 87.7769 16.683 87.4052 16.4465C87.0335 16.2099 86.7406 15.8551 86.5266 15.382C86.3126 14.909 86.2056 14.3233 86.2056 13.6249C86.2056 12.9266 86.3126 12.369 86.5266 11.9185C86.7406 11.4679 87.0419 11.13 87.4305 10.9047C87.8191 10.6795 88.2837 10.5668 88.8244 10.5668C89.2524 10.5668 89.6213 10.6372 89.9311 10.778C90.2408 10.9188 90.4999 11.1244 90.7082 11.3947C90.9166 11.665 91.0715 11.9889 91.1729 12.3662C91.2742 12.7435 91.3249 13.1631 91.3249 13.6249C91.3249 14.3345 91.2151 14.9259 90.9955 15.3989ZM100.626 9.41794C100.384 9.35036 100.122 9.29685 99.8403 9.25743C99.5587 9.21801 99.2546 9.1983 98.9279 9.1983C98.3647 9.1983 97.8297 9.3053 97.3228 9.51931C96.816 9.73332 96.3626 10.0403 95.9627 10.4401C95.5629 10.84 95.2503 11.3356 95.025 11.9269C94.7998 12.5183 94.6871 13.1969 94.6871 13.9628C94.6871 14.8189 94.8307 15.5594 95.118 16.1846C95.4052 16.8097 95.8248 17.2941 96.3767 17.6376C96.9286 17.9811 97.5988 18.1529 98.3872 18.1529C98.9955 18.1529 99.5981 18.0346 100.195 17.7981C100.519 17.6686 100.84 17.4855 101.158 17.2518V17.7136C101.158 18.1416 101.105 18.5162 100.998 18.8372C100.891 19.1582 100.727 19.4285 100.508 19.6482C100.288 19.8678 100.001 20.0311 99.646 20.1381C99.2912 20.2451 98.8603 20.2986 98.3535 20.2986C98.0155 20.2986 97.6692 20.2789 97.3144 20.2395C96.9596 20.2001 96.602 20.1325 96.2415 20.0368C95.8811 19.941 95.5263 19.8199 95.1771 19.6735L95.363 21.1603C95.6671 21.2842 95.9853 21.3884 96.3175 21.4729C96.6498 21.5573 96.9962 21.6221 97.3566 21.6672C97.7171 21.7122 98.0888 21.7348 98.4717 21.7348C99.4291 21.7348 100.234 21.5742 100.888 21.2532C101.541 20.9322 102.034 20.4873 102.366 19.9185C102.698 19.3497 102.865 18.6936 102.865 17.9502V9.1983L101.212 9.6235C101.026 9.54465 100.831 9.47426 100.626 9.41794ZM100.938 16.1846C100.713 16.3141 100.496 16.4211 100.288 16.5056C100.08 16.5901 99.8769 16.6548 99.6798 16.6999C99.4826 16.7449 99.2771 16.7675 99.0631 16.7675C98.4774 16.7675 97.9902 16.6577 97.6016 16.438C97.213 16.2184 96.9258 15.8861 96.7399 15.4412C96.5541 14.9963 96.4612 14.4246 96.4612 13.7263C96.4612 13.2082 96.5259 12.7492 96.6555 12.3493C96.785 11.9494 96.9708 11.62 97.213 11.3609C97.4552 11.1019 97.7537 10.9019 98.1085 10.7611C98.4633 10.6203 98.866 10.5499 99.3165 10.5499C99.5868 10.5499 99.8515 10.5725 100.111 10.6175C100.37 10.6626 100.634 10.7273 100.905 10.8118C100.986 10.8372 101.074 10.8709 101.158 10.9047V16.055C101.085 16.1001 101.009 16.1452 100.938 16.1846ZM116.736 6.00505H118.493L114.32 18.0008H112.123L107.967 6.00505H109.859L112.326 13.4053C112.461 13.7882 112.594 14.1965 112.723 14.6302C112.853 15.0638 112.979 15.5003 113.103 15.9396C113.168 16.1733 113.23 16.3958 113.289 16.6126C113.345 16.407 113.405 16.193 113.466 15.9734C113.585 15.5454 113.709 15.1173 113.838 14.6893C113.968 14.2613 114.094 13.8558 114.218 13.4729L116.736 6.00505ZM121.94 6.09797C122.041 6.27256 122.092 6.46686 122.092 6.68087C122.092 6.89488 122.041 7.09199 121.94 7.27221C121.838 7.45243 121.7 7.59322 121.526 7.6946C121.351 7.79597 121.157 7.84666 120.943 7.84666C120.729 7.84666 120.532 7.79597 120.351 7.6946C120.171 7.59322 120.028 7.45243 119.921 7.27221C119.814 7.09199 119.76 6.89488 119.76 6.68087C119.76 6.46686 119.814 6.27256 119.921 6.09797C120.028 5.92339 120.171 5.78259 120.351 5.67559C120.532 5.56858 120.729 5.51508 120.943 5.51508C121.157 5.51508 121.351 5.56858 121.526 5.67559C121.7 5.78259 121.838 5.92339 121.94 6.09797ZM120.047 9.46862L121.771 9.21519V18.0008H120.047V9.46862ZM127.743 13.3827L131.84 18.0008H129.61L126.158 13.8615H126.13V18.0008H124.406V5.49818L126.13 5.24475V12.5605H126.752L129.644 9.38415H131.756L127.743 13.3827ZM139.308 10.4739C138.981 10.0515 138.568 9.73332 138.066 9.51931C137.565 9.3053 136.993 9.1983 136.351 9.1983C135.709 9.1983 135.135 9.31093 134.628 9.53621C134.121 9.76148 133.69 10.0769 133.336 10.4824C132.981 10.8878 132.71 11.375 132.525 11.9438C132.339 12.5126 132.246 13.1462 132.246 13.8446C132.246 14.7682 132.412 15.5538 132.744 16.2015C133.077 16.8491 133.569 17.3391 134.223 17.6714C134.876 18.0037 135.676 18.1698 136.622 18.1698C137.072 18.1698 137.469 18.1445 137.813 18.0938C138.156 18.0431 138.48 17.9671 138.784 17.8657C139.088 17.7643 139.393 17.6348 139.697 17.4771L139.815 16.1761C139.601 16.255 139.384 16.3338 139.165 16.4127C138.945 16.4915 138.717 16.5619 138.48 16.6239C138.244 16.6858 138.002 16.7309 137.754 16.759C137.506 16.7872 137.258 16.8013 137.01 16.8013C136.503 16.8013 136.064 16.7534 135.692 16.6577C135.321 16.5619 135.008 16.3986 134.755 16.1677C134.501 15.9368 134.31 15.6242 134.18 15.23C134.079 14.9174 134.017 14.5457 133.997 14.1149H140.102C140.181 13.3264 140.15 12.6281 140.009 12.0198C139.868 11.4116 139.635 10.8963 139.308 10.4739ZM135.05 10.8794C135.411 10.6485 135.85 10.533 136.368 10.533C136.886 10.533 137.343 10.6598 137.669 10.9132C137.996 11.1666 138.224 11.5186 138.354 11.9692C138.438 12.2592 138.475 12.5774 138.477 12.9153H134.034C134.076 12.538 134.144 12.2029 134.248 11.9269C134.423 11.4595 134.69 11.1103 135.05 10.8794ZM150.121 12.5098V18.0008H148.398V12.8646C148.398 12.5154 148.364 12.2113 148.297 11.9523C148.229 11.6932 148.122 11.4792 147.976 11.3102C147.829 11.1413 147.643 11.0146 147.418 10.9301C147.193 10.8456 146.922 10.8034 146.607 10.8034C146.382 10.8034 146.148 10.8231 145.906 10.8625C145.664 10.9019 145.421 10.9611 145.179 11.0399C144.937 11.1187 144.695 11.2117 144.453 11.3187C144.273 11.3975 144.101 11.4876 143.937 11.5834V18.0008H142.214V9.46862L143.937 9.21519V10.4232C144.09 10.3021 144.247 10.1839 144.411 10.0769C144.839 9.79527 145.292 9.57844 145.771 9.42638C146.249 9.27433 146.731 9.1983 147.215 9.1983C147.869 9.1983 148.409 9.31656 148.837 9.5531C149.265 9.78964 149.586 10.1501 149.8 10.6344C150.014 11.1187 150.121 11.7439 150.121 12.5098Z" fill="#D4EEFC"/>
</g>
<defs>
<clipPath id="clip0_5918_1622">
<rect width="107" height="17" fill="white" transform="translate(44 5)"/>
</clipPath>
</defs>
</svg>

<svg xmlns="http://www.w3.org/2000/svg" viewBox="0 0 156 24"><path fill="#1767CE" d="M0 0h156v24H0z"/><path fill="#fff" d="M6 17.997V6h4v11.998H6Zm9.244-10.089 2.264 10.09H13.2l-2.704-12h2.417a2.276 2.276 0 0 1 1.512.55c.422.346.66.826.82 1.36ZM18 17.998v-12h4v12h-4Zm7.01-7.436a2.382 2.382 0 0 1-2.4-2.4 2.301 2.301 0 0 1 .322-1.2A2.41 2.41 0 0 1 26.21 6.1c.356.21.653.506.862.862.215.363.326.778.321 1.2a2.35 2.35 0 0 1-.321 1.208 2.4 2.4 0 0 1-.862.87 2.3 2.3 0 0 1-1.2.322ZM28 17.997V6h4v11.998h-4Zm8.974-5.441c.01.011.095.15.253.414s.364.602.617 1.014a315.936 315.936 0 0 1 1.597 2.62c.247.41.529.875.845 1.393H35.96c-.27-.439-.516-.836-.736-1.19-.22-.356-.453-.739-.7-1.15-.248-.411-.493-.811-.736-1.2-.242-.39-.45-.73-.625-1.022-.175-.293-.296-.49-.363-.592a1.747 1.747 0 0 1-.287-.845c.016-.29.11-.57.27-.811.067-.113.191-.313.371-.6a182.106 182.106 0 0 0 1.37-2.23l.7-1.159.736-1.2h4.326l-3.346 5.459a1.08 1.08 0 0 0-.17.541c.012.202.083.396.204.558Z"/><g clip-path="url(#a)"><path fill="#D4EEFC" d="M54.467 7.526a4.943 4.943 0 0 0-1.79-1.25c-.705-.293-1.507-.44-2.408-.44s-1.73.152-2.45.456a5.137 5.137 0 0 0-1.833 1.284 5.627 5.627 0 0 0-1.149 1.986c-.265.771-.397 1.624-.397 2.56 0 .934.13 1.776.389 2.525.259.75.636 1.388 1.132 1.918.495.53 1.095.932 1.799 1.208.704.276 1.5.414 2.39.414.89 0 1.71-.147 2.425-.44a5.153 5.153 0 0 0 1.833-1.25 5.527 5.527 0 0 0 1.166-1.943c.27-.755.406-1.61.406-2.568 0-.957-.13-1.763-.389-2.517a5.524 5.524 0 0 0-1.124-1.943Zm-.574 6.386a4.24 4.24 0 0 1-.769 1.478 3.518 3.518 0 0 1-1.25.963c-.496.231-1.065.347-1.707.347-.642 0-1.168-.107-1.647-.321a3.481 3.481 0 0 1-1.233-.92 4.006 4.006 0 0 1-.777-1.445 6.38 6.38 0 0 1-.262-1.893c0-.935.16-1.763.481-2.483.321-.721.78-1.287 1.377-1.698.597-.412 1.318-.617 2.163-.617.845 0 1.52.194 2.095.583.574.388 1.017.935 1.326 1.639.31.704.465 1.523.465 2.458 0 .698-.087 1.335-.262 1.91Zm9.968.836c.096.243.144.533.144.87 0 .451-.093.84-.279 1.166a2.21 2.21 0 0 1-.769.794c-.326.203-.71.352-1.148.448-.44.096-.907.144-1.403.144-.214 0-.425-.006-.633-.017a4.366 4.366 0 0 1-.642-.085 14.64 14.64 0 0 1-.693-.16 10.19 10.19 0 0 1-.803-.245l-.067-1.436c.259.09.515.172.769.245.253.073.5.135.743.186.242.05.473.09.693.118.22.028.42.042.6.042.337 0 .656-.034.954-.101a1.62 1.62 0 0 0 .727-.347c.185-.163.278-.385.278-.667a.863.863 0 0 0-.296-.667 1.857 1.857 0 0 0-.346-.237 3.122 3.122 0 0 0-.439-.194 11.77 11.77 0 0 1-.346-.11 28.078 28.078 0 0 0-.744-.236 15.935 15.935 0 0 1-.785-.262c-.226-.09-.437-.2-.634-.33a2.477 2.477 0 0 1-.515-.448 1.988 1.988 0 0 1-.355-.616 2.387 2.387 0 0 1-.135-.837c0-.439.084-.819.253-1.14.17-.321.408-.586.718-.794a3.49 3.49 0 0 1 1.09-.473c.417-.107.878-.16 1.385-.16.203 0 .409.008.617.025.208.017.42.048.634.093.214.045.425.1.633.169.209.067.42.146.634.236l-.118 1.369a4.072 4.072 0 0 0-.49-.186c-.18-.057-.358-.107-.533-.152a5.741 5.741 0 0 0-1.005-.17 5.35 5.35 0 0 0-.405-.016 3.77 3.77 0 0 0-.752.067c-.22.046-.409.113-.566.203a.96.96 0 0 0-.355.33.877.877 0 0 0-.118.464c0 .158.036.299.11.423.073.123.168.23.287.32.118.09.25.175.397.254.135.068.284.13.447.186.164.056.333.11.507.16.175.051.35.107.524.17.175.061.352.12.532.177.248.09.485.2.71.33.225.129.422.284.591.464.17.18.302.391.397.633Zm5.027 1.986.203-.034-.17 1.335a3.775 3.775 0 0 1-1.047.135c-.27 0-.521-.031-.752-.093a1.493 1.493 0 0 1-.6-.313 1.413 1.413 0 0 1-.388-.566c-.09-.23-.135-.51-.135-.836V5.498l1.723-.253v10.357c0 .202.014.377.042.523a.925.925 0 0 0 .144.364.61.61 0 0 0 .253.21.914.914 0 0 0 .372.068c.067 0 .127 0 .177-.008.051-.006.11-.014.178-.025Zm7.966-6.995c-.648-.36-1.41-.54-2.29-.54-.878 0-1.647.185-2.306.557a3.895 3.895 0 0 0-1.537 1.571c-.366.676-.55 1.476-.55 2.4 0 .923.172 1.72.516 2.39.344.67.836 1.18 1.478 1.529.642.35 1.386.524 2.23.524.845 0 1.656-.186 2.332-.558a3.935 3.935 0 0 0 1.58-1.588c.377-.687.566-1.498.566-2.433 0-.935-.175-1.664-.524-2.323a3.691 3.691 0 0 0-1.495-1.529Zm-.101 5.66c-.22.473-.527.825-.921 1.056-.394.23-.845.346-1.352.346-.507 0-.946-.118-1.318-.354-.371-.237-.664-.592-.878-1.065-.214-.473-.321-1.059-.321-1.757s.107-1.256.32-1.707c.215-.45.516-.788.905-1.013.388-.225.853-.338 1.394-.338.428 0 .796.07 1.106.211.31.14.569.346.777.617.209.27.364.594.465.971.101.377.152.797.152 1.259 0 .71-.11 1.3-.33 1.774Zm14.344-5.66c-.648-.36-1.41-.54-2.29-.54-.878 0-1.647.185-2.306.557a3.895 3.895 0 0 0-1.537 1.571c-.366.676-.55 1.476-.55 2.4 0 .923.172 1.72.516 2.39.343.67.836 1.18 1.478 1.529.642.35 1.386.524 2.23.524.845 0 1.656-.186 2.332-.558a3.935 3.935 0 0 0 1.58-1.588c.377-.687.566-1.498.566-2.433 0-.935-.175-1.664-.524-2.323a3.691 3.691 0 0 0-1.495-1.529Zm-.101 5.66c-.22.473-.527.825-.921 1.056-.395.23-.845.346-1.352.346-.507 0-.946-.118-1.318-.354-.371-.237-.664-.592-.878-1.065-.214-.473-.321-1.059-.321-1.757s.107-1.256.32-1.707c.215-.45.516-.788.904-1.013.39-.225.854-.338 1.394-.338.428 0 .797.07 1.107.211.31.14.569.346.777.617.209.27.364.594.465.971.101.377.152.797.152 1.259 0 .71-.11 1.3-.33 1.774Zm9.63-5.981a6.033 6.033 0 0 0-.786-.16 6.595 6.595 0 0 0-.912-.06c-.563 0-1.098.107-1.605.321-.507.214-.96.521-1.36.921-.4.4-.713.896-.938 1.487-.225.591-.338 1.27-.338 2.036 0 .856.144 1.596.431 2.222.287.625.707 1.11 1.259 1.453.552.343 1.222.515 2.01.515.609 0 1.211-.118 1.808-.355a4.38 4.38 0 0 0 .963-.546v.462c0 .428-.053.802-.16 1.123a2.046 2.046 0 0 1-.49.811c-.22.22-.507.383-.862.49-.355.107-.786.16-1.293.16-.337 0-.684-.02-1.039-.058a7.333 7.333 0 0 1-1.072-.203 8.196 8.196 0 0 1-1.065-.363l.186 1.486c.304.124.622.228.954.313.333.084.68.15 1.04.194.36.045.732.068 1.115.068.957 0 1.762-.16 2.416-.482.653-.32 1.146-.766 1.478-1.334.332-.57.499-1.225.499-1.969V9.198l-1.653.425a4.67 4.67 0 0 0-.586-.205Zm.312 6.767c-.225.13-.442.236-.65.32-.208.085-.411.15-.608.195a2.764 2.764 0 0 1-.617.067c-.586 0-1.073-.11-1.461-.329a1.98 1.98 0 0 1-.862-.997c-.186-.445-.279-1.016-.279-1.715 0-.518.065-.977.195-1.377.129-.4.315-.729.557-.988.242-.26.54-.46.896-.6.354-.14.757-.211 1.208-.211.27 0 .535.022.794.067.259.046.523.11.794.195.081.025.169.059.253.093v5.15c-.073.045-.149.09-.22.13Zm15.798-10.18h1.757l-4.173 11.996h-2.197l-4.156-11.996h1.892l2.467 7.4c.135.383.268.792.397 1.225.13.434.256.87.38 1.31l.186.673.177-.64a62.028 62.028 0 0 1 .752-2.5l2.518-7.468Zm5.204.093c.101.175.152.369.152.583 0 .214-.051.411-.152.591a1.114 1.114 0 0 1-.997.575 1.19 1.19 0 0 1-.592-.152 1.148 1.148 0 0 1-.43-.423 1.138 1.138 0 0 1-.161-.591c0-.214.054-.408.161-.583.107-.175.25-.315.43-.422.181-.107.378-.16.592-.16.214 0 .408.053.583.16a1.2 1.2 0 0 1 .414.422Zm-1.893 3.37 1.724-.253v8.786h-1.724V9.469Zm7.696 3.915L131.84 18h-2.23l-3.452-4.14h-.028v4.14h-1.724V5.498l1.724-.253v7.315h.622l2.892-3.176h2.112l-4.013 3.999Zm11.565-2.91a3.06 3.06 0 0 0-1.242-.954c-.501-.214-1.073-.32-1.715-.32-.642 0-1.216.112-1.723.337a3.67 3.67 0 0 0-1.292.946 4.125 4.125 0 0 0-.811 1.462 6.094 6.094 0 0 0-.279 1.9c0 .924.166 1.71.498 2.357a3.306 3.306 0 0 0 1.479 1.47c.653.333 1.453.499 2.399.499.45 0 .847-.026 1.191-.076a5.7 5.7 0 0 0 .971-.228c.304-.102.609-.231.913-.389l.118-1.3-.65.236c-.22.078-.448.149-.685.21a5.138 5.138 0 0 1-.726.136 6.58 6.58 0 0 1-.744.042c-.507 0-.946-.048-1.318-.143a2.168 2.168 0 0 1-.937-.49c-.254-.231-.445-.544-.575-.938a4.295 4.295 0 0 1-.183-1.115h6.105c.079-.789.048-1.487-.093-2.095-.141-.608-.374-1.124-.701-1.546Zm-4.258.406c.361-.23.8-.346 1.318-.346s.975.127 1.301.38c.327.254.555.606.685 1.056.084.29.121.608.123.946h-4.443c.042-.377.11-.712.214-.988.175-.467.442-.817.802-1.048Zm15.071 1.63v5.492h-1.723v-5.136c0-.35-.034-.654-.101-.913a1.578 1.578 0 0 0-.321-.642 1.358 1.358 0 0 0-.558-.38 2.314 2.314 0 0 0-.811-.127c-.225 0-.459.02-.701.06-.242.039-.485.098-.727.177a7.662 7.662 0 0 0-.726.279c-.18.079-.352.169-.516.264v6.418h-1.723V9.469l1.723-.254v1.208c.153-.12.31-.24.474-.346a5.48 5.48 0 0 1 1.36-.65c.478-.153.96-.229 1.444-.229.654 0 1.194.119 1.622.355.428.237.749.597.963 1.081.214.485.321 1.11.321 1.876Z"/></g><defs><clipPath id="a"><path fill="#fff" d="M44 5h107v17H44z"/></clipPath></defs></svg>
